!!!SOCIAL_FUNCTION:	tobacco dance songs
!!!PDT:	1932
!!!OTL: No_111_Tobacco_Dance_Song_(c).krn
!!!REG: Wisconsin
!!!LANG: Non-Tone
!!!LING_GROUP: Algonquin
**kern
*staff1
=1-
=
*clefF4
*k[]
*M3/4
12d\L
12c\
12d\J
4.c\
8r
=2
12e\L
12d\
12c\J
4G\
4G\
=3
12c\L
12G\
12A\J
4G\
8G\
8r
=4||
*M2/4
12D\L
12G\
12G\J
4G\
=5||
*M3/4
12c\L
12G\
12A\J
4G\
8G\
8r
=6||
*M2/4
12D\L
12G\
12G\J
4G\
=7:|!
12c\L
12G\
12A\J
4G\
==
*-
